X:3390
L:1/8
M:2/2
K:D
 A2 AB AFDF | [FB][FB][FB]A B3 dB | AAAB AFDf | gfed Bc d2 :| fffd ggge | fffd ceee | fffd ggge | 
 afed B2 d2 | fafd gbge | fafd egec | fafa gbgb | afec B2 d2 ||

